X:1
T:With freedom blest - Webbe
T:#
%%score { 1 | 2 } 3
L:1/8
Q:1/4=72
M:6/8
K:E
V:1 treble-8 nm="Tenor I" snm="T"
V:2 treble-8 
V:3 bass nm="Bass" snm="B"
V:1
"^andantino""^With freedom blest""^Samuel Webbe \n(1740-1816)" B | B2 G (GA)B | c2 e (ed)c | %3
w: With|free- dom blest * at|ear- ly dawn * I|
 B2 B e2 G |[M:6/8][K:treble-8] G2 G c2 c | B2 B e2 e | d3 c3 | B3- B2 :: %8
w: wan- der o'er the|wood and lawn And|hail the sweet re-|turn- ing|Spring. *|
[M:4/4][K:treble-8]"^moderato"[Q:1/4=90] d | d2 d2 e3 f | g2 Tf2 e2 z2 | %11
w: The|fra- grant breeze, the|fea- ther'd choir,|
[M:4/4][K:treble-8][Q:1/4=90][Q:1/4=90] z8 | z4 z2 z F | (G>F E/F/G/^A/ B)B B (c/d/) | %14
w: |To|raise * * * * * * my ver- nal *|
 e3 (f/e/) d2 (cB) | (Te>d e)f (ed) (cB) | (Te>d e)f (ed) (cB) | e3 e e2 e2 | (e c2) A (G F3) | %19
w: lays con\- * spire, The *|fra\- * * grant breeze, * the *|fea\- * * ther'd choir, * To *|raise my ver- nal|lays * con- spire, *|
 z4 z2 E2 | e2 =d2 (cB) (A3/2B/4c/4) | (GF) (FB) G2 B2 | B4- BAGG | A2 F2 G2 z2 | %24
w: While|peace and health * their * *|trea\- * sures * bring, While|peace * and health their|trea- sures bring,|
 z def[Q:1/4=90] (g[Q:1/4=90]f)[Q:1/4=90] e2 |[Q:1/4=90] f2[Q:1/4=90] d2[Q:1/4=90] e3 :| %26
w: While peace and health * their|trea- sures bring.|
V:2
 G | G2 E (EF)G | A2 c (cB)A | G2 F E2 E |[M:6/8][K:treble-8] E2 E E2 A | G2 G c2 c | B3 ^A3 | %7
w: With|free- dom blest * at|ear- ly dawn * I|wan- der o'er the|wood and lawn And|hail the sweet re-|turn- ing|
 B3- B2 ::[M:4/4][K:treble-8] B | B2 A2 G3 A | B2 A2 G3 B | %11
w: Spring. *|The|fra- grant breeze, the|fea- ther'd choir, To|
[M:4/4][K:treble-8] (c>B A/B/c/d/ e)E E (F/G/) | A3 (B/A/) G3 F | E3 E F2 B2 | B2 ^A2 B2 =A2 | %15
w: raise * * * * * * my ver- nal *|lays con\- * spire, To|raise my ver- nal|lays con- spire, The|
 (G>F G)A B2 A2 | (G>F G)A B2 A2 | G3 G A2 G2 | F2 F2 (E D3) | z8 | z4 z2 F2 | E2 D2 E2 z2 | %22
w: fra\- * * grant breeze, the|fea\- * * ther'd choir, To|raise my ver- nal|lays con- spire, *||their|trea- sures bring,|
 z DEF (GF) E2 | F2 D2 E2 B2 | B4- BAGG | A2 F2 G3 :| %26
w: While peace and health * their|trea- sures bring, While|peace * and health their|trea- sures bring.|
V:3
 E, | E,2 E, E,2 E, | A,2 A, A,2 A, | E,2 D, C,2 C, |[M:6/8] C,2 B,, A,,2 A,, | (E,D,)E, (C,D,)E, | %6
w: With|free- dom blest at|ear- ly dawn I|wan- der o'er the|wood and lawn And|hail * the sweet * re-|
 F,3 F,3 | B,,3- B,,2 ::[M:4/4] B,, | B,,2 B,,2 E,3 E, | E,2 E,2 E,3 G, |[M:4/4] A,3 A, G,2 G,2 | %12
w: turn- ing|Spring. *|The|fra- grant breeze, the|fea- ther'd choir, To|raise my ver- nal|
 F,2 D,2 E,3 B,, | E,3 E, D,2 D,2 | C,2 C,2 B,,4 | z8 | z8 | z (E,/F,/) G,E, C2 B,2 | %18
w: lays con- spire, To|raise my ver- nal|lays con- spire,|||To * raise my ver- nal|
 A,2 A,,2 B,,3 B,, | B,2 A,2 (G,F,) (E,=D,) | C,2 B,,2 A,,2 A,,2 | B,,2 B,,2 E,2 z2 | %22
w: lays con- spire, While|peace and health * their *|trea- sures bring, their|trea- sures bring,|
 z B,,C,D, E,3 C, | A,,2 B,,2 E,2 z2 | z B,,C,D, E,3 C, | A,,2 B,,2 E,3 :| %26
w: While peace and health their|trea- sures bring,|While peace and health their|trea- sures bring.|

